!!!COM: Claude Debussy
!!!CNT: Francais
!!!TXO: Francais
!!!OPR: Ariettes Oublie/es
!!!ONM: No. 4
!!!OTL: Chevaux de Bois
!!!LYR: Paul Verlaine
!!!ENC: Jacob Pegg
!!!YOR: Claude Debussy: Songs 1880-1904, Edited by Rita Benton
!!!YOR: New York: Dover publications, inc., 1981
!!!YOR: ISBN 0-486-24131-9
!!!ODT: 1885/
!!NB: Vocal melody and text only encoded.
!!NB: First instance of melodic material only encoded.
**kern	**silbe
*clef G2	*
*k[f#c#g#d#]	*
*M2/4	*
*MM[allegro]	*
!! created: 6/26/03 15:32
!! last edited: 7/10/03 11:42
!! time (min) : input notes 42, words 13.  check : notes 16, words 6.
!! total edit time: about 83 min.
=8	=8
4r	.
8.r	.
{16b	{Tour-
=9	=9
8.ee	-nez,
16ee	tour-
4b	-nez,
=10	=10
16cc#	bons
16cc#	che-
16cc#	-veaux
16cc#	de
8g#}	bois,}
{8g#	{Tour-
=11	=11
8a	-nez,
8a#	cent
8b	tours,
8e	tour-
=12	=12
8fn	-nez
16f#	mil-
16f#	-le
8gn}	tours,}
8r	.
!!13-16 repeat of (9-12)
=17	=17
*k[]	*
8.r	.
{16c	{L'en-
8.d	-fant
16d	tout
=18	=18
8c	rou-
16c}	-ge}
16r	.
{16d	{et
16d	la
16d	me\-
16d	-re
=19	=19
16c	blan-
32c}	-che,}
32r	.
{8c	{Le
8d	gars
8d	en
=20	=20
8e	noir
(8e	et
12g	la
12g	fille
12g)	en
=21	=21
8a	ro-
16a}	-se,}
16r	.
{8b	{L'une
16b	a
16b	la
=22	=22
8a	chose
8a	et
8b	l'au-
16b	-tre a
16b	la
=23	=23
16a	po-
32a}	-se,}
32r	.
{8a	{Cha-
8b	-cun
8b	se
=24	=24
8dd	paie
8a	un
8dd	sou
16cc	de
16dd	di-
=25	=25
[2dd	-man-
=26	=26
8dd]}	-che.}
8r	.
8.r	.
{16b-	{Tour-
!! same melody, different key
=27	=27
8.ee-	-nez,
16ee-	tour-
8b-}	-nez,}
8r	.
=28	=28
{16cc	{che-
16cc	-vaux
16cc	de
16cc	leur
8g}	coeur,}
{(8g	{Tan-
=29	=29
8a-	-dis
8an	qu'au-
8b-)	-tour
(8e-	de
=30	=30
12en	tous
12en	vos
12f	tour-
8f#)}	-nois}
8r	.
!!31-33 repeat of 27-30	
!!34-35 same notes as end of phrase in 37-30, held out
!!36-39 rest	
=39	=39
*k[f#c#g#d#a#]	*
16r	.
{16f#	{C'est
16f#	e/-
16f#	-ton-
4gn	-nant
=40	=40
16g#	com-
16g#	-me
16g#	c5a
16g#	vous
8an	sou^-
16an}	-le}
16r	.
=41	=41
{8a#	{D'al-
8a#	-ler
8an	ain-
8an	-si
=42	=42
16g#	dans
16g#	ce
16g#	cir-
16g#	-que
8gn	be^-
16gn}	-te:}
16r	.
=43	=43
16r	.
{16b	{Rien
16b	dans
16b	le
8fn	ven-
8fn	-tre et
=44	=44
8b	mal
16b	dans
16b	la
8fn	te^-
16fn}	-te,}
16r	.
=45	=45
16r	.
{16cc#	{Du
16cc#	mal
16cc#	en
8gn	mas-
8gn	-se et
=46	=46
*M1/4	*
12cc#	du
12cc#	bien
12cc#	en
=47	=47
*k[f#]	*
*M2/4	*
[2dd	fou-
=48	=48
4dd]}	-le;}
4r	.
=49	=49
2r	.
=50	=50
4r	.
8.r	.
{16dd	{Tour-
=51	=51
8.gg	-nez
16gg	da-
8dd}	-das,}
8r	.
=52	=52
{16ee	{sans
16ee	qu'il
16ee	soit
16ee	be-
8b}	-soin}
{8b	{D'u-
=53	=53
8cc	-ser
8cc#	ja-
8dd	-mais
8g	de
=54	=54
8g#	nuls
16a	e/-
16a	-pe-
8b-}	-rons}
{8dd	{Pour
=55	=55
8gg	com-
8gg	-man-
8dd}	-der}
8r	.
!!56-60 drawn-out repeat of 52-55
=61	=61
*k[]	*
{4f	{Et
8f	de/-
8f	-pe^-
=62	=62
8b-}	-chez,}
{8b-	{che-
12dd	-vaux
12cc	de
12dd	leur
=63	=63
(2b-	a^-
=64	=64
4f)}	-me,}
8r	.
{(8d	{De/-
=65	=65
4g)	-ja\
(4g	voi-
=66	=66
8b-	-ci
8g	que
12a	son-
12b-	-ne a\
12dd	la
=67	=67
[2dd)	sou-
=68	=68
4dd]	|
4dd}	-pe}
=69	=69
{(4cc#	{La
8dd	nuit
8dd	qui
=70	=70
8dd#	tom-
8dd#	-be et
12ee	chas-
12ee	-se
12ee	la
=71	=71
4cc#	trou-
[4a#)	-pe
=72	=72
4a#]}	|}
{12g#	{De
12a#	gais
12f#	bu-
=73	=73
8c#	-veurs,
(8c#	que
12d	leur
12d	soif
12d	af-
=74	=74
4d#	-fa-
4e)	|
=75	=75
[2b	-me.
=76	=76
4b]}	|}
4r	.
=77	=77
2r	.
=78	=78
4r	.
8r	.
{(8b	{Tour-
=79	=79
*k[f#c#g#d#]	*
4ee)	-nez,
8r	.
8ee	tour-
=80	=80
4b}	-nez!}
4r	.
=81	=81
{8ee	{Le
8ee	ciel
8ee	en
8ee	ve-
=82	=82
4b}	-lours}
{(12b	{D'as-
12b	-tres
12b)	en
=83	=83
4.cc#	or
(8cc#	se
=84	=84
4ddn	ve^t
8ddn	len-
8ddn	-te-
=85	=85
[2dd#)	-ment,
=86	=86
4dd#]}	|}
4r	.
=87	=87
8r	.
{8a#	{L'E-
8f#	-gli-
8g#	-se
=88	=88
8a#	tin-
8cc#	-te
8dd#	un
8ff#	|
=89	=89
6ee#	glas
6dd#	tris-
6cc#	-te-
=90	=90
2a#}	-ment.}
=91	=91
8.r	.
{(16an	{Tour-
8.gn)	-nez
16g	au
=92	=92
8a	son
8a	jo-
12gn	-yeux
12gn	des
12gn	tam-
=93	=93
[2a	-bours,
=94	=94
4a]}	|}
{(4f	{tour-
=95	=95
[2e)	-nez.
=96	=96
4e]}	|}
4r	.
*-	*-
